svg/u1f529.svg

<svg viewBox="0 0 128 128" xmlns="http://www.w3.org/2000/svg">
  <g>
    <path d="M103.27,123.99c0,0,5.29,0.61,13.72-7.81s6.45-12.8,6.45-12.8l-18.51-20.2l-21.56,22.54 L103.27,123.99z" fill="#82AEC0"/>
    <path d="M122.01,101.81l-2.55-2.78c-2.03,5.97-5,11.56-8.78,16.56c-1.09,1.44-3.21,1.58-4.51,0.33l-0.31-0.3 c-1.12-1.08-1.24-2.83-0.27-4.06c4.08-5.18,7.34-10.97,9.61-17.19l-2.88-3.14c-2.04,6.23-5.12,12.04-9.06,17.22 c-1.09,1.44-3.21,1.58-4.51,0.32l0,0c-1.12-1.08-1.24-2.84-0.27-4.06c4.23-5.34,7.59-11.33,9.9-17.78l-2.43-2.68l-21.3,22.66 l18.59,17.07c0,0,2.82,0.46,8.15-3.07C111.38,120.89,116.86,117.99,122.01,101.81z" fill="#2F7889"/>
    <path d="M100.84,52.4l10.85,10.85c1.25,1.25,1.83,3.04,1.55,4.79l-2.38,14.7c-0.19,1.15-0.73,2.2-1.55,3.02 l-23.19,23.19c-0.82,0.82-1.88,1.36-3.03,1.55l-14.69,2.37c-1.75,0.28-3.53-0.29-4.78-1.55l-10.85-10.85L100.84,52.4z" fill="#82AEC0"/>
    <path d="M81.98,54.91l16.35-3.35c1.97-0.4,3.72,1.34,3.32,3.32l-3.12,15.24c-0.26,1.26-0.88,2.42-1.79,3.33 L73.81,96.37c-0.91,0.91-2.07,1.53-3.33,1.79l-15.24,3.12c-1.97,0.4-3.72-1.34-3.32-3.32l3.35-16.35c0.11-0.54,0.38-1.03,0.77-1.42 l24.52-24.52C80.95,55.29,81.44,55.02,81.98,54.91z" fill="#B9E4EA"/>
    <path d="M62.49,86.04c0,0,6.53,3.92,17.41-6.95s5.95-16.21,5.95-16.21L64.8,40.5L39.74,66.26L62.49,86.04z" fill="#82AEC0"/>
    <path d="M84.64,61.6l-3.04-3.23c-2.22,6.81-5.49,13.2-9.65,18.97c-1.26,1.75-3.79,1.94-5.34,0.45l-0.33-0.32 c-1.3-1.25-1.45-3.27-0.37-4.71c4.52-5.98,8.12-12.64,10.64-19.75l-3.43-3.64c-2.24,7.06-5.58,13.66-9.88,19.59 c-1.26,1.74-3.79,1.93-5.34,0.44h0c-1.3-1.25-1.45-3.28-0.36-4.71c4.67-6.13,8.38-12.97,10.94-20.29l-2.76-2.95L40.56,66.98 l21.93,19.06c0,0,1.71,1.19,5.69,0.42c3.71-0.72,6.98-3.31,6.98-3.31s-0.53-0.05-0.83-0.3c-0.3-0.26-0.77-1.07-0.19-1.85 C78.58,75.11,82.14,68.58,84.64,61.6z" fill="#2F7889"/>
    <path d="M58.95,4.97l11.18,11.18c1.72,1.72,2.53,4.15,2.18,6.55l-2.23,15.51c-0.24,1.65-1,3.18-2.18,4.36 L42.91,67.55c-1.17,1.17-2.69,1.94-4.34,2.18L23,72.01c-2.41,0.35-4.85-0.45-6.57-2.18L5.26,58.66L58.95,4.97z" fill="#82AEC0"/>
    <path d="M39.74,7.45l16.56-3.39c2.1-0.43,3.95,1.42,3.52,3.52L56.32,24.7c-0.29,1.44-1,2.75-2.04,3.79 L28.85,53.92c-1.04,1.04-2.35,1.75-3.79,2.04L7.94,59.47c-2.1,0.43-3.95-1.42-3.52-3.52l3.39-16.56c0.37-1.8,1.26-3.45,2.56-4.75 l24.63-24.63C36.29,8.71,37.94,7.82,39.74,7.45z" fill="#B9E4EA"/>
    <path d="M17.27,59.53c-4.4,1.59-6.51,4.64-6.51,4.64l5.66,5.66c1.72,1.72,4.16,2.53,6.57,2.18l15.58-2.28 L27.74,58.89C27.74,58.89,21.67,57.94,17.27,59.53z" fill="#2F7889"/>
    <path d="M74.89,100.57c0,0-7.95,0-12.77,1.42c-2.6,0.77-3.97,1.97-4.69,3.13l6.19,6.19 c1.25,1.25,3.03,1.83,4.78,1.55l14.69-2.37c0.49-0.08,0.96-0.24,1.41-0.44L74.89,100.57z" fill="#2F7889"/>
    <path d="M59.62,15.42c-1.4,5.82,0.17,14.28,0.17,14.28l9.58,10.8c0.35-0.72,0.6-1.49,0.71-2.3l2.23-15.51 c0.35-2.41-0.46-4.83-2.18-6.55l-6.28-6.28C63.84,9.86,60.74,10.77,59.62,15.42z" fill="#94D1E0"/>
    <path d="M105.02,56.59c-0.91,1.25-2.39,2.94-3.32,6.39c-1.05,3.87-0.35,12.26-0.35,12.26l9.02,9.02 c0.23-0.48,0.4-0.99,0.49-1.52l2.38-14.7c0.28-1.75-0.29-3.53-1.55-4.79L105.02,56.59z" fill="#94D1E0"/>
  </g>
</svg>

<svg viewBox="0 0 128 128" xmlns="http://www.w3.org/2000/svg">
  <defs/>
  <path d="M103.27,123.99 C103.27,123.99 108.56,124.6 116.99,116.18 C125.42,107.76 123.44,103.38 123.44,103.38 L104.93,83.18 L83.37,105.72 L103.27,123.99 Z" fill="#82AEC0"/>
  <path d="M122.01,101.81 L119.46,99.03 C117.43,105 114.46,110.59 110.68,115.59 C109.59,117.03 107.47,117.17 106.17,115.92 L105.86,115.62 C104.74,114.54 104.62,112.79 105.59,111.56 C109.67,106.38 112.93,100.59 115.2,94.37 L112.32,91.23 C110.28,97.46 107.2,103.27 103.26,108.45 C102.17,109.89 100.05,110.03 98.75,108.77 L98.75,108.77 C97.63,107.69 97.51,105.93 98.48,104.71 C102.71,99.37 106.07,93.38 108.38,86.93 L105.95,84.25 L84.65,106.91 L103.24,123.98 C103.24,123.98 106.06,124.44 111.39,120.91 C111.38,120.89 116.86,117.99 122.01,101.81 Z" fill="#2F7889"/>
  <path d="M100.84,52.4 L111.69,63.25 C112.94,64.5 113.52,66.29 113.24,68.04 L110.86,82.74 C110.67,83.89 110.13,84.94 109.31,85.76 L86.12,108.95 C85.3,109.77 84.24,110.31 83.09,110.5 L68.4,112.87 C66.65,113.15 64.87,112.58 63.62,111.32 L52.77,100.47 L100.84,52.4 Z" fill="#82AEC0"/>
  <path d="M81.98,54.91 L98.33,51.56 C100.3,51.16 102.05,52.9 101.65,54.88 L98.53,70.12 C98.27,71.38 97.65,72.54 96.74,73.45 L73.81,96.37 C72.9,97.28 71.74,97.9 70.48,98.16 L55.24,101.28 C53.27,101.68 51.52,99.94 51.92,97.96 L55.27,81.61 C55.38,81.07 55.65,80.58 56.04,80.19 L80.56,55.67 C80.95,55.29 81.44,55.02 81.98,54.91 Z" fill="#B9E4EA"/>
  <path d="M62.49,86.04 C62.49,86.04 69.02,89.96 79.9,79.09 C90.78,68.22 85.85,62.88 85.85,62.88 L64.8,40.5 L39.74,66.26 L62.49,86.04 Z" fill="#82AEC0"/>
  <path d="M84.64,61.6 L81.6,58.37 C79.38,65.18 76.11,71.57 71.95,77.34 C70.69,79.09 68.16,79.28 66.61,77.79 L66.28,77.47 C64.98,76.22 64.83,74.2 65.91,72.76 C70.43,66.78 74.03,60.12 76.55,53.01 L73.12,49.37 C70.88,56.43 67.54,63.03 63.24,68.96 C61.98,70.7 59.45,70.89 57.9,69.4 L57.9,69.4 C56.6,68.15 56.45,66.12 57.54,64.69 C62.21,58.56 65.92,51.72 68.48,44.4 L65.72,41.45 L40.56,66.98 L62.49,86.04 C62.49,86.04 64.2,87.23 68.18,86.46 C71.89,85.74 75.16,83.15 75.16,83.15 C75.16,83.15 74.63,83.1 74.33,82.85 C74.03,82.59 73.56,81.78 74.14,81 C78.58,75.11 82.14,68.58 84.64,61.6 Z" fill="#2F7889"/>
  <path d="M58.95,4.97 L70.13,16.15 C71.85,17.87 72.66,20.3 72.31,22.7 L70.08,38.21 C69.84,39.86 69.08,41.39 67.9,42.57 L42.91,67.55 C41.74,68.72 40.22,69.49 38.57,69.73 L23,72.01 C20.59,72.36 18.15,71.56 16.43,69.83 L5.26,58.66 L58.95,4.97 Z" fill="#82AEC0"/>
  <path d="M39.74,7.45 L56.3,4.06 C58.4,3.63 60.25,5.48 59.82,7.58 L56.32,24.7 C56.03,26.14 55.32,27.45 54.28,28.49 L28.85,53.92 C27.81,54.96 26.5,55.67 25.06,55.96 L7.94,59.47 C5.84,59.9 3.99,58.05 4.42,55.95 L7.81,39.39 C8.18,37.59 9.07,35.94 10.37,34.64 L35,10.01 C36.29,8.71 37.94,7.82 39.74,7.45 Z" fill="#B9E4EA"/>
  <path d="M17.27,59.53 C12.87,61.12 10.76,64.17 10.76,64.17 L16.42,69.83 C18.14,71.55 20.58,72.36 22.99,72.01 L38.57,69.73 L27.74,58.89 C27.74,58.89 21.67,57.94 17.27,59.53 Z" fill="#2F7889"/>
  <path d="M74.89,100.57 C74.89,100.57 66.94,100.57 62.12,101.99 C59.52,102.76 58.15,103.96 57.43,105.12 L63.62,111.31 C64.87,112.56 66.65,113.14 68.4,112.86 L83.09,110.49 C83.58,110.41 84.05,110.25 84.5,110.05 L74.89,100.57 Z" fill="#2F7889"/>
  <path d="M59.62,15.42 C58.22,21.24 59.79,29.7 59.79,29.7 L69.37,40.5 C69.72,39.78 69.97,39.01 70.08,38.2 L72.31,22.69 C72.66,20.28 71.85,17.86 70.13,16.14 L63.85,9.86 C63.84,9.86 60.74,10.77 59.62,15.42 Z" fill="#94D1E0"/>
  <path d="M105.02,56.59 C104.11,57.84 102.63,59.53 101.7,62.98 C100.65,66.85 101.35,75.24 101.35,75.24 L110.37,84.26 C110.6,83.78 110.77,83.27 110.86,82.74 L113.24,68.04 C113.52,66.29 112.95,64.51 111.69,63.25 L105.02,56.59 Z" fill="#94D1E0"/>
</svg>
